X:1
T:Anonymous; First published by John Rippon, 1787     77. 77.
T:G Major Oliver Holden, 1803
T:Salem (1803) No copyright. Transcribed from The Charlestown Collection, 1803.
%%score [ 1 2 3 4 ]
L:1/8
M:4/4
K:G
V:1 treble nm="Treble" snm="Tr"
V:2 treble nm="Counter" snm="C."
V:3 treble-8 nm="Tenor" snm="T"
V:4 bass nm="Bass" snm="B"
V:1
 B4 c4 | d4 B4 | (A2 B2) (c2 A2) | B8 | G4 A4 | B4 d4 | (c2 B2) (A2 c2) | B8 | A4 B4 | F4 A4 | %10
w: 1.~King of|Sa- lem,|bless * my *|soul,|Make a|woun- ded|sin- * ner *|whole;|King of|righ- teous-|
 B4 G4 | F8 | d4 G4 | (A2 D2) (A2 F2) | G4 A4 | B8 |] %16
w: ness and|peace,|Let not|Thy * sweet *|vi- sits|cease.|
V:2
 D4 D4 | G4 D4 | D4 D4 | D8 | D4 D4 | G4 G4 | (F2 G2) F4 | D8 | D4 D4 | D4 D4 | D4 ^C4 | D8 | %12
w: 2.~Come, re-|fresh this|soul of|mine|With Thy|sa- cred|bread * and|wine!|All Thy|love to|me un-|fold,|
 D4 D4 | D4 D4 | D4 D4 | D8 |] %16
w: Half of|which can|not be|told.|
V:3
 G4 A4 | B4 G4 | (F2 G2) (A2 F2) | G8 | B4 c4 | d4 B4 | (A2 B2) (c2 A2) | G8 | F4 G4 | A4 F4 | %10
w: 3.~Hail, Mel-|chi- ze-|dek * di- *|vine!|Thou great|high priest|shall * me *|mine;|All my|powers be-|
 G4 E4 | D8 | A4 B4 | (c2 A2) (d2 c2) | B4 A4 | G8 |] %16
w: fore Thee|fall,|Take not|tithe, * but *|take them|all!|
V:4
 G,4 F,4 | G,4 B,,4 | D,4 D,4 | G,8 | G,4 D,4 | B,,4 G,,4 | D,4 D,4 | G,8 | D,4 D,4 | D,4 D,4 | %10
 G,4 A,4 | D,8 | D,4 G,4 | D,4 D,4 | G,4 D,4 | G,,8 |] %16

